SF_Symbols/phone.fill.badge.plus.svg

<?xml version="1.0" encoding="UTF-8"?>
<svg xmlns="http://www.w3.org/2000/svg" xmlns:xlink="http://www.w3.org/1999/xlink" width="24" height="24" viewBox="0 0 24 24" version="1.1">
<g id="surface1">
<path style=" stroke:none;fill-rule:nonzero;fill:rgb(100%,100%,100%);fill-opacity:1;" d="M 18.308594 21.03125 C 19.023438 21.03125 19.6875 20.90625 20.304688 20.648438 C 20.929688 20.398438 21.488281 19.992188 21.980469 19.433594 C 22.277344 19.101562 22.507812 18.75 22.675781 18.375 C 22.84375 18.007812 22.929688 17.640625 22.929688 17.273438 C 22.929688 16.992188 22.875 16.726562 22.765625 16.476562 C 22.65625 16.21875 22.46875 16 22.203125 15.816406 C 21.636719 15.417969 21.070312 15.023438 20.503906 14.625 C 19.9375 14.21875 19.375 13.816406 18.816406 13.410156 C 18.558594 13.234375 18.320312 13.101562 18.097656 13.015625 C 17.878906 12.925781 17.667969 12.882812 17.46875 12.882812 C 17.21875 12.882812 16.976562 12.953125 16.742188 13.09375 C 16.507812 13.222656 16.265625 13.414062 16.015625 13.664062 L 15.230469 14.4375 C 15.121094 14.554688 14.980469 14.613281 14.8125 14.613281 C 14.722656 14.613281 14.640625 14.597656 14.558594 14.570312 C 14.484375 14.539062 14.421875 14.515625 14.371094 14.492188 C 14.027344 14.308594 13.585938 13.992188 13.046875 13.542969 C 12.511719 13.089844 11.96875 12.589844 11.425781 12.042969 C 10.890625 11.5 10.394531 10.960938 9.9375 10.421875 C 9.480469 9.886719 9.164062 9.449219 8.988281 9.109375 C 8.960938 9.050781 8.929688 8.984375 8.902344 8.910156 C 8.878906 8.832031 8.867188 8.75 8.867188 8.667969 C 8.867188 8.507812 8.921875 8.371094 9.03125 8.261719 L 9.816406 7.457031 C 10.058594 7.207031 10.25 6.964844 10.390625 6.726562 C 10.53125 6.492188 10.597656 6.25 10.597656 6 C 10.597656 5.800781 10.550781 5.59375 10.457031 5.371094 C 10.367188 5.152344 10.230469 4.910156 10.046875 4.65625 C 9.65625 4.101562 9.265625 3.546875 8.867188 2.988281 C 8.46875 2.429688 8.074219 1.871094 7.675781 1.3125 C 7.484375 1.046875 7.257812 0.855469 6.992188 0.738281 C 6.726562 0.613281 6.449219 0.550781 6.15625 0.550781 C 5.78125 0.550781 5.40625 0.636719 5.039062 0.804688 C 4.679688 0.96875 4.34375 1.203125 4.027344 1.511719 C 3.488281 2.027344 3.09375 2.59375 2.84375 3.21875 C 2.601562 3.839844 2.480469 4.5 2.480469 5.207031 C 2.480469 6.03125 2.632812 6.890625 2.933594 7.785156 C 3.242188 8.683594 3.664062 9.582031 4.203125 10.476562 C 4.730469 10.351562 5.28125 10.289062 5.855469 10.289062 C 6.835938 10.289062 7.753906 10.476562 8.613281 10.851562 C 9.472656 11.21875 10.230469 11.730469 10.886719 12.386719 C 11.539062 13.039062 12.050781 13.796875 12.417969 14.65625 C 12.792969 15.511719 12.980469 16.425781 12.980469 17.40625 C 12.980469 18 12.90625 18.578125 12.75 19.136719 C 13.714844 19.722656 14.664062 20.1875 15.605469 20.527344 C 16.554688 20.863281 17.457031 21.03125 18.308594 21.03125 Z M 5.855469 23.007812 C 6.613281 23.007812 7.332031 22.859375 8.007812 22.566406 C 8.683594 22.273438 9.28125 21.867188 9.792969 21.351562 C 10.316406 20.839844 10.722656 20.242188 11.019531 19.566406 C 11.3125 18.890625 11.460938 18.167969 11.460938 17.40625 C 11.460938 16.632812 11.3125 15.90625 11.019531 15.230469 C 10.730469 14.554688 10.332031 13.960938 9.816406 13.445312 C 9.300781 12.929688 8.707031 12.53125 8.03125 12.242188 C 7.351562 11.949219 6.628906 11.800781 5.855469 11.800781 C 5.09375 11.800781 4.371094 11.949219 3.695312 12.242188 C 3.019531 12.53125 2.421875 12.933594 1.90625 13.457031 C 1.394531 13.96875 0.988281 14.566406 0.695312 15.242188 C 0.402344 15.910156 0.253906 16.632812 0.253906 17.40625 C 0.253906 18.175781 0.402344 18.902344 0.695312 19.578125 C 0.988281 20.253906 1.394531 20.847656 1.90625 21.363281 C 2.421875 21.878906 3.019531 22.28125 3.695312 22.566406 C 4.371094 22.859375 5.09375 23.007812 5.855469 23.007812 Z M 5.855469 20.910156 C 5.652344 20.910156 5.484375 20.847656 5.359375 20.722656 C 5.242188 20.597656 5.183594 20.4375 5.183594 20.238281 L 5.183594 18.078125 L 3.023438 18.078125 C 2.824219 18.078125 2.660156 18.019531 2.535156 17.902344 C 2.410156 17.777344 2.347656 17.609375 2.347656 17.40625 C 2.347656 17.199219 2.410156 17.035156 2.535156 16.917969 C 2.660156 16.792969 2.824219 16.730469 3.023438 16.730469 L 5.183594 16.730469 L 5.183594 14.570312 C 5.183594 14.371094 5.242188 14.210938 5.359375 14.085938 C 5.484375 13.960938 5.652344 13.898438 5.855469 13.898438 C 6.0625 13.898438 6.222656 13.960938 6.34375 14.085938 C 6.46875 14.210938 6.53125 14.371094 6.53125 14.570312 L 6.53125 16.730469 L 8.691406 16.730469 C 8.890625 16.730469 9.050781 16.792969 9.175781 16.917969 C 9.300781 17.035156 9.363281 17.199219 9.363281 17.40625 C 9.363281 17.609375 9.300781 17.777344 9.175781 17.902344 C 9.050781 18.019531 8.890625 18.078125 8.691406 18.078125 L 6.53125 18.078125 L 6.53125 20.238281 C 6.53125 20.4375 6.46875 20.597656 6.34375 20.722656 C 6.222656 20.847656 6.0625 20.910156 5.855469 20.910156 Z M 5.855469 20.910156 "/>
</g>
</svg>

<svg xmlns="http://www.w3.org/2000/svg" width="24" height="24"><path style="stroke:none;fill-rule:nonzero;fill:#fff;fill-opacity:1" d="M18.309 21.031a5.142 5.142 0 0 0 1.996-.383c.625-.25 1.183-.656 1.675-1.214.297-.332.528-.684.696-1.059.168-.367.254-.734.254-1.102 0-.28-.055-.546-.164-.796a1.54 1.54 0 0 0-.563-.66c-.566-.399-1.133-.794-1.7-1.192-.566-.406-1.128-.809-1.687-1.215a3.57 3.57 0 0 0-.718-.394 1.665 1.665 0 0 0-.63-.133c-.25 0-.491.07-.726.21-.234.13-.476.321-.726.571l-.786.774a.552.552 0 0 1-.418.175.806.806 0 0 1-.253-.043c-.075-.03-.137-.054-.188-.078-.344-.183-.785-.5-1.324-.949a25.583 25.583 0 0 1-1.621-1.5 30.729 30.729 0 0 1-1.489-1.621c-.457-.535-.773-.973-.949-1.313-.027-.058-.058-.125-.086-.199a.845.845 0 0 1-.035-.242c0-.16.055-.297.164-.406l.785-.805c.243-.25.434-.492.575-.73.14-.235.207-.477.207-.727 0-.2-.047-.406-.141-.629a3.606 3.606 0 0 0-.41-.715c-.39-.554-.781-1.11-1.18-1.668-.398-.558-.793-1.117-1.191-1.675a1.655 1.655 0 0 0-.684-.575 1.936 1.936 0 0 0-.836-.187c-.375 0-.75.086-1.117.254-.36.164-.695.398-1.012.707-.539.515-.933 1.082-1.183 1.707a5.401 5.401 0 0 0-.364 1.988c0 .824.153 1.684.454 2.578.308.899.73 1.797 1.27 2.692a7.367 7.367 0 0 1 1.651-.188c.98 0 1.899.188 2.758.563.86.367 1.617.878 2.274 1.535a7.162 7.162 0 0 1 1.531 2.27c.375.855.562 1.769.562 2.75 0 .593-.074 1.171-.23 1.73.965.586 1.914 1.05 2.855 1.39.95.336 1.852.504 2.704.504ZM5.855 23.008c.758 0 1.477-.149 2.153-.442.668-.289 1.273-.699 1.785-1.214.523-.512.93-1.11 1.227-1.786a5.412 5.412 0 0 0 .44-2.16c0-.773-.148-1.5-.44-2.176a5.621 5.621 0 0 0-2.989-2.988 5.42 5.42 0 0 0-2.176-.441c-.761 0-1.484.148-2.16.441a5.545 5.545 0 0 0-1.789 1.215 5.754 5.754 0 0 0-1.21 1.785 5.35 5.35 0 0 0-.442 2.164c0 .77.148 1.496.441 2.172.293.676.7 1.27 1.211 1.785a5.617 5.617 0 0 0 1.79 1.203 5.412 5.412 0 0 0 2.16.442Zm0-2.098a.67.67 0 0 1-.496-.187.671.671 0 0 1-.175-.485v-2.16h-2.16a.68.68 0 0 1-.489-.176.67.67 0 0 1-.187-.496c0-.207.062-.37.187-.488a.662.662 0 0 1 .488-.188h2.16v-2.16c0-.199.06-.36.176-.484a.67.67 0 0 1 .496-.188.644.644 0 0 1 .676.672v2.16h2.16c.2 0 .36.063.485.188.125.117.187.281.187.488a.67.67 0 0 1-.187.496.671.671 0 0 1-.485.176h-2.16v2.16c0 .2-.062.36-.187.485a.647.647 0 0 1-.489.187Zm0 0"/></svg>
